X:1
T:Partition sans titre
C:Compositeur / Arrangeur
L:1/8
M:4/4
I:linebreak $
K:C
V:1 treble nm="Violon" snm="Vln."
V:1
"G" BGGG BGAB |"C" cdcB"D" A3 c |"G" BGGG BGAB |1"C" cdcA"G" G3 A :|2"C" cdcA"G" G3 B |: %5
"G" g2 f2 eBAB | g2 f2 e2 BA | BdcB"D" AAAB |"G" g2 f2 eBAB | g2 f2 e2 BA |1 BdcB G3 B :|2 %11
 BdcB G3 A |] %12
